images/google+.svg

<svg xmlns="http://www.w3.org/2000/svg" width="40" height="40" fill="none"><rect width="40" height="40" fill="#E93E30" rx="7"/><g fill="#fff" clip-path="url(#a)"><path d="M29.823 17h-2.187v2.177h-2.177v2.187h2.177v2.177h2.187v-2.177H32v-2.187h-2.177V17ZM15.5 27.5c4.328 0 7.203-3.038 7.203-7.326 0-.491-.051-.87-.122-1.248h-7.08v2.578h4.257c-.174 1.095-1.289 3.233-4.257 3.233-2.557 0-4.645-2.118-4.645-4.737s2.087-4.738 4.645-4.738c1.463 0 2.435.624 2.988 1.156l2.036-1.954C19.214 13.237 17.526 12.5 15.5 12.5A7.498 7.498 0 0 0 8 20c0 4.144 3.356 7.5 7.5 7.5Z"/></g><defs><clipPath id="a"><path fill="#fff" d="M8 8h24v24H8z"/></clipPath></defs></svg>

<svg width="40" height="40" viewBox="0 0 40 40" fill="none" xmlns="http://www.w3.org/2000/svg">
<rect width="40" height="40" rx="7" fill="#E93E30"/>
<g clip-path="url(#clip0_1_2593)">
<path d="M29.8227 17H27.6357V19.177H25.4587V21.364H27.6357V23.541H29.8227V21.364H31.9997V19.177H29.8227V17Z" fill="white"/>
<path d="M15.5 27.5C19.828 27.5 22.703 24.462 22.703 20.174C22.703 19.683 22.652 19.304 22.581 18.926H15.501V21.504H19.758C19.584 22.599 18.469 24.737 15.501 24.737C12.944 24.737 10.856 22.619 10.856 20C10.856 17.381 12.943 15.262 15.501 15.262C16.964 15.262 17.936 15.886 18.489 16.418L20.525 14.464C19.214 13.237 17.526 12.5 15.5 12.5C11.356 12.5 8 15.856 8 20C8 24.144 11.356 27.5 15.5 27.5Z" fill="white"/>
</g>
<defs>
<clipPath id="clip0_1_2593">
<rect width="24" height="24" fill="white" transform="translate(8 8)"/>
</clipPath>
</defs>
</svg>
